src/objects/clothing/1F462.svg

<?xml version="1.0" encoding="UTF-8"?>
<svg id="emoji" xmlns="http://www.w3.org/2000/svg" viewBox="0 0 72 72">
  <g id="grid">
    <path d="m68,4v64H4V4h64M72,0H0v72h72V0Z" fill="#b3b3b3"/>
    <path d="m12.923,10.9583h46.1539c1.0621,0,1.9231.861,1.9231,1.9231h0v46.1538c0,1.0621-.861,1.9231-1.9231,1.9231H12.9231c-1.0621,0-1.9231-.861-1.9231-1.9231h0V12.8813c0-1.062.861-1.923,1.923-1.923h0Z" fill="none" stroke="#00a5ff" stroke-miterlimit="10" stroke-width=".1"/>
    <rect x="16" y="4" width="40" height="64" rx="2.2537" ry="2.2537" fill="none" stroke="#00a5ff" stroke-miterlimit="10" stroke-width=".1"/>
    <rect x="4" y="16" width="64" height="40" rx="2.2537" ry="2.2537" fill="none" stroke="#00a5ff" stroke-miterlimit="10" stroke-width=".1"/>
    <circle cx="36" cy="36" r="29" fill="none" stroke="#00a5ff" stroke-miterlimit="10" stroke-width=".1"/>
  </g>
  <g id="color">
    <polyline points="10.1126 50.1558 10.247 60.9497 19.8879 61.2288 21.0821 50.1763" fill="#6a462f"/>
    <polyline points="10.3692 52.9798 11.0428 60.9583 18.8821 60.9583 19.5557 54.7243" fill="#6a462f"/>
    <path d="m50.3692,52.6627c5.0161.1894,5,8.2957,5,8.2957h-24.9957l-8.5938-11.0526h-11.6605c1.0244-3.1706,5.7177-8.176,6.8115-11.8457,3.613-12.1211-7.7259-27.1017-7.7259-27.1017C21.5547,1.0701,41.451,3.9709,41.6469,3.9998c.0034.0005.0025-.0015.0007.0015-.0738.1166-5.286,8.3971-6.2784,22.574-1.0161,14.5157-.0139,18.8882,3.2856,22.9289,3.2996,4.0407,6.6983,2.9692,11.7144,3.1586Z" fill="#a57939"/>
    <line x1="22.2778" y1="9.1397" x2="26.0361" y2="25.3132" fill="none"/>
  </g>
  <g id="line">
    <polyline points="10.3692 52.9798 11.0428 60.9583 18.8821 60.9583 19.5557 54.7243" fill="none" stroke="#000" stroke-linecap="round" stroke-linejoin="round" stroke-width="2"/>
    <path d="m50.3692,52.6627c5.0161.1894,5,8.2957,5,8.2957h-24.9957l-8.5938-11.0526h-11.4105c1.0244-3.1706,5.4677-8.176,6.5615-11.8457,3.613-12.1211-7.7259-27.1017-7.7259-27.1017C21.6159,1.0211,41.6484,4,41.6484,4c0,0-5.2797,8.2972-6.2792,22.5752-1.0161,14.5157-.0139,18.8882,3.2856,22.9289,3.2996,4.0407,6.6983,2.9692,11.7144,3.1586Z" fill="none" stroke="#000" stroke-linecap="round" stroke-linejoin="round" stroke-width="2"/>
    <line x1="22.2778" y1="9.1397" x2="26.0361" y2="25.3132" fill="none" stroke="#000" stroke-linecap="round" stroke-linejoin="round" stroke-width="2"/>
  </g>
</svg>

<svg id="emoji" viewBox="0 0 72 72" xmlns="http://www.w3.org/2000/svg">
  <g id="grid">
    <path fill="#b3b3b3" d="M68,4V68H4V4H68m4-4H0V72H72V0Z"/>
    <path fill="none" stroke="#00a5ff" stroke-miterlimit="10" stroke-width="0.1" d="M12.923,10.9583H59.0769A1.9231,1.9231,0,0,1,61,12.8814V59.0352a1.9231,1.9231,0,0,1-1.9231,1.9231H12.9231A1.9231,1.9231,0,0,1,11,59.0352V12.8813A1.923,1.923,0,0,1,12.923,10.9583Z"/>
    <rect x="16" y="4" rx="2.2537" width="40" height="64" fill="none" stroke="#00a5ff" stroke-miterlimit="10" stroke-width="0.1"/>
    <rect x="16" y="4" rx="2.2537" width="40" height="64" transform="translate(72) rotate(90)" fill="none" stroke="#00a5ff" stroke-miterlimit="10" stroke-width="0.1"/>
    <circle cx="36" cy="36" r="29" fill="none" stroke="#00a5ff" stroke-miterlimit="10" stroke-width="0.1"/>
  </g>
  <g id="color">
    <polyline fill="#6A462F" stroke="none" points="9.3692,49.9058 10.0428,60.9583 19.8879,61.2288 21.0821,50.1763"/>
    <polyline fill="#6A462F" stroke="none" stroke-linecap="round" stroke-linejoin="round" stroke-miterlimit="10" stroke-width="2" points="10.3692,52.9798 11.0428,60.9583 18.8821,60.9583 19.5557,54.7243"/>
    <path fill="#A57939" stroke="none" stroke-linecap="round" stroke-linejoin="round" stroke-miterlimit="10" stroke-width="2" d="M50.3692,52.6627c5.0161,0.1894,5,8.2957,5,8.2957H30.3735l-8.5938-11.0526H10.3692c1.0244-3.1706,5.4677-8.176,6.5615-11.8457 c3.613-12.1211-7.7259-27.1017-7.7259-27.1017C21.6159,1.0211,41.6484,4,41.6484,4s-5.2797,8.2972-6.2792,22.5752 c-1.0161,14.5157-0.0139,18.8882,3.2856,22.9289C41.9544,53.5448,45.3531,52.4733,50.3692,52.6627z"/>
    <line x1="22.2778" x2="26.0361" y1="9.1397" y2="25.3132" fill="#A57939" stroke="none" stroke-linecap="round" stroke-linejoin="round" stroke-miterlimit="10" stroke-width="2"/>
  </g>
  <g id="hair"/>
  <g id="skin"/>
  <g id="skin-shadow"/>
  <g id="line">
    <polyline fill="none" stroke="#000000" stroke-linecap="round" stroke-linejoin="round" stroke-miterlimit="10" stroke-width="2" points="10.3692,52.9798 11.0428,60.9583 18.8821,60.9583 19.5557,54.7243"/>
    <path fill="none" stroke="#000000" stroke-linecap="round" stroke-linejoin="round" stroke-miterlimit="10" stroke-width="2" d="M50.3692,52.6627c5.0161,0.1894,5,8.2957,5,8.2957H30.3735l-8.5938-11.0526H10.3692c1.0244-3.1706,5.4677-8.176,6.5615-11.8457 c3.613-12.1211-7.7259-27.1017-7.7259-27.1017C21.6159,1.0211,41.6484,4,41.6484,4s-5.2797,8.2972-6.2792,22.5752 c-1.0161,14.5157-0.0139,18.8882,3.2856,22.9289C41.9544,53.5448,45.3531,52.4733,50.3692,52.6627z"/>
    <line x1="22.2778" x2="26.0361" y1="9.1397" y2="25.3132" fill="none" stroke="#000000" stroke-linecap="round" stroke-linejoin="round" stroke-miterlimit="10" stroke-width="2"/>
  </g>
</svg>
